!!!COM: Vivaldi, Antonio Lucio
!!!CDT: 1678/03/04-1741/08/28
!!!OPR: 12 Sonatas for Violin and Basso continuo
!!!OTL: Sonata in G minor, op. @{OPS}, no. @{ONM} (@{SCT})
!!!OPS: 2
!!!ONM: 1
!!!OMV: 2. Giga
!!!SCT: RV 27
!!!SCA: Antonio Vivaldi: Thematisch-systematisches Verzeichnis seiner Werke (Ryom-Verzeichnis)
!!!OMD: Allegro
!!!key: g
**kern	**fb	**kern	**dynam
*part2	*	*part1	*
*staff2	*	*staff1	*
*ICklav	*	*ICstr	*
*Icemba	*	*Ivioln	*
*I"Basso continuo	*	*I"Violino	*
*I'bc	*	*I'v	*
*>[A,A,B,B]	*>[A,A,B,B]	*>[A,A,B,B]	*>[A,A,B,B]
*>norep[A,B]	*>norep[A,B]	*>norep[A,B]	*>norep[A,B]
*>A	*>A	*>A	*>A
*clefF4	*	*clefG2	*
*k[b-]	*	*k[b-]	*
*g:	*	*g:	*
*M6/8	*	*M6/8	*
*MM210	*	*MM210	*
8r	.	8dd\	.
=1	=1	=1	=1
2.r	.	(8gg\L	.
.	.	8ff#X\)	.
.	.	8gg\J	.
.	.	(8aa\L	.
.	.	8gg\)	.
.	.	8aa\J	.
=2	=2	=2	=2
4.r	.	(8bb-y\L	.
.	.	8aa\)	.
.	.	8bb-y\J	.
8r	.	4gg\	.
8r	.	.	.
8D\	#	8aa\	.
=3	=3	=3	=3
(8G\L	.	(8bb-y\L	.
8F#y\)	.	8aa\)	.
8G\J	.	8bb-y\J	.
(8A\L	6#/	(8ccc\L	.
8G\)	.	8bb-y\)	.
8A\J	.	8ccc\J	.
=4	=4	=4	=4
(8B-y\L	6	(8ddd\L	.
8A\)	.	8ccc\)	.
8B-y\J	.	8ddd\J	.
(8G\L	.	(8bb-y\L	.
8A\)	.	8ccc\)	.
8B-y\J	.	8ddd\J	.
=5	=5	=5	=5
(8c\L	6 4#|	(8aa\L	.
8B-y\)	.	8bb-y\)	.
8A\J	.	8ccc\J	.
(8B-y\L	6	(8gg\L	.
8A\)	.	8aa\)	.
8G\J	.	8bb-y\J	.
=6	=6	=6	=6
4.d\	#	(8ff#X\L	.
.	.	8ee\)	.
.	.	8dd\J	.
4.c\	4#| 2	(8dd\L	.
.	.	8ee\)	.
.	.	8ff#X\J	.
=7	=7	=7	=7
(8B-y\L	6	4.gg\	.
8A\)	.	.	.
8G\J	.	.	.
(8G\L	.	8r	.
8A\)	.	8r	.
8B-y\J	.	8gg\	.
=8	=8	=8	=8
4.c\	-	(8ee-X\L	.
.	.	8dd\)	.
.	.	8cc\J	.
8r	.	(8cc\L	.
8r	.	8dd\)	.
8c\	.	8ee-X\J	.
!!LO:LB:g=original
=9	=9	=9	=9
(8A\L	6	4.ff\	.
8G\)	.	.	.
8F\J	.	.	.
(8F\L	.	8r	.
8G\)	.	8r	.
8A\J	.	8ff\	.
=10	=10	=10	=10
[2.B-y\	5	(8dd\L	.
.	.	8ee-X\	.
.	.	8ff\J	.
.	6	8gg\L	.
.	.	8aa\	.
.	.	8bb-y\J)	.
=11	=11	=11	=11
4.B-y\]	4-r 2	(8cc\L	.
.	.	8dd\	.
.	.	8ee-X\J	.
[4.A\	6	8ff\L	.
.	.	8gg\	.
.	.	8aa\J)	.
=12	=12	=12	=12
4.A\]	4 2	(8b-X\L	.
.	.	8cc\	.
.	.	8dd\J	.
[4.G\	6-r	8ee-X\L	.
.	.	8ff\	.
.	.	8gg\J)	.
=13	=13	=13	=13
4.G\]	4 2	(8a\L	.
.	.	8b-y\	.
.	.	8cc\J	.
[4.F\	6	8dd\L	.
.	.	8ee-X\	.
.	.	8ff\J)	.
=14	=14	=14	=14
4.F\]	4 2	(8g/L	.
.	.	8a/	.
.	.	8b-y/J	.
[4.E-X\	6	8cc\L	.
.	.	8dd\	.
.	.	8ee-X\J)	.
=15	=15	=15	=15
4.E-X\]	4 2	(8a/L	.
.	.	8g/	.
.	.	8f/J)	.
4.D\	6	(8b-y\L	.
.	.	8cc\	.
.	.	8dd\J)	.
=16	=16	=16	=16
4.E-X\	7 5	(8g/L	.
.	.	8a/	.
.	.	8b-y/J)	.
4.F\	5 4	(8f/L	.
.	.	8b-y/	.
.	X 3	8a/J)	.
=17	=17	=17	=17
4BB-y/	.	4.B-y/	.
8F\	.	.	.
(8B-y\L	.	4.r	.
8c\)	.	.	.
8B-y\J	.	.	.
!!LO:LB:g=original
=18	=18	=18	=18
(8A\L	6	8r	.
8G\)	.	8r	.
8F\J	.	8cc\	.
4.A\	6	(8ff\L	.
.	.	8gg\)	.
.	.	8ff\J	.
=19	=19	=19	=19
4.B-y\	.	(8dd\L	.
.	.	8cc\)	.
.	.	8b-y\J	.
4.Bn\	6	(8gg\L	.
.	.	8aa\)	.
.	.	8gg\J	.
=20	=20	=20	=20
4.c\	.	(8een\L	.
.	.	8dd\)	.
.	.	8cc\J	.
4.c#X\	6	(8aa\L	.
.	.	8bb-y\)	.
.	.	8aa\J	.
=21	=21	=21	=21
4.d\	.	(8ff\L	.
.	.	8ee\)	.
.	.	8dd\J	.
4.D\	6	(8bb-y\L	.
.	.	8aa\	.
.	.	8bb-y\J)	.
=22	=22	=22	=22
4.E\	7	(8gg\L	.
.	.	8ff\	.
.	.	8gg\J)	.
4.G\	6 5	(8ee\L	.
.	.	8dd\	.
.	.	8ee\J)	.
=23	=23	=23	=23
4.A\	#	8cc#X\L	.
.	.	8bn\	.
.	.	8a\J	.
4.F\	6	(8dd\L	.
.	.	8cc\	.
.	.	8b-y\J)	.
=24	=24	=24	=24
4.G\	9	(8a/L	.
.	.	8g/	.
.	8	8f/J)	.
4.A\	6 4	(4f/T	.
.	5 #	8e/)	.
=25	=25	=25	=25
4.D\	.	4.d/	.
4.F\	6	(8dd\L	p
.	.	8cc\	.
.	.	8b-y\J)	.
=26	=26	=26	=26
4.G\	9	(8a/L	.
.	8	8g/	.
.	.	8f/J)	.
4.A\	6 4	(4f/T	.
.	5 #	8e/)	.
!!LO:LB:g=original
=27	=27	=27	=27
[4.D\	.	[4.d/	.
4D\]	.	4d/]	.
=:|!|:	=:|!|:	=:|!|:	=:|!|:
*>B	*>B	*>B	*>B
8r	.	8a/	.
=28	=28	=28	=28
2.r	.	(8dd\L	.
.	.	8cc#X\)	.
.	.	8dd\J	.
.	.	(8ee\L	.
.	.	8dd\)	.
.	.	8ee\J	.
=29	=29	=29	=29
4.r	.	(8ff\L	.
.	.	8ee\)	.
.	.	8ff\J	.
8r	.	4dd\	.
8r	.	.	.
8A\	#	8ee\	.
=30	=30	=30	=30
(8d\L	.	(8ff\L	.
8c#X\)	.	8ee\)	.
8d\J	.	8ff\J	.
(8e\L	6#/	(8gg\L	.
8d\)	.	8ff\)	.
8e\J	.	8gg\J	.
=31	=31	=31	=31
(8f\L	6	(8aa\L	.
8e\)	.	8gg\)	.
8f\J	.	8aa\J	.
(8d\L	.	(8ff\L	.
8e\)	.	8gg\)	.
8f\J	.	8aa\J	.
=32	=32	=32	=32
(8g\L	6	(8ee\L	.
8f\)	.	8ff\)	.
8e\J	.	8gg\J	.
(8f\L	6	(8dd\L	.
8e\)	.	8ee\)	.
8d\J	.	8ff\J	.
=33	=33	=33	=33
4.A\	#	4cc#X\	.
.	.	8ee\	.
8r	.	[4.aa\	.
8r	.	.	.
8A\	.	.	.
=34	=34	=34	=34
[4.d\	.	4aa\]	.
.	.	8gg\	.
4d\]	.	(8ff\L	.
.	.	8ee\)	.
8d\	.	8dd\J	.
=35	=35	=35	=35
(8B-y\L	6	[4.gg\	.
8A\)	.	.	.
8G\J	.	.	.
[4.c\	.	4gg\]	.
.	.	8ff\	.
=36	=36	=36	=36
4c\]	.	(8ee\L	.
.	.	8ff\)	.
8B-y\	.	8gg\J	.
(8A\L	6	[4.cc\	.
8B-y\)	.	.	.
8c\J	.	.	.
!!LO:LB:g=original
=37	=37	=37	=37
4F\	.	8cc\L]	.
.	.	8b-y\	.
8f\	.	8a\J	.
(8d\L	6	[4.ff\	.
8e-X\)	.	.	.
8f\J	.	.	.
=38	=38	=38	=38
(8B-y\L	.	4ff\]	.
8c\)	.	.	.
8d\J	.	8b-y\	.
(8c\L	-	[4.ee-X\	.
8d\)	.	.	.
8e-X\J	.	.	.
=39	=39	=39	=39
(8A\L	7 5-r	4ee-y\]	.
8B-y\)	.	.	.
8c\J	.	8a/	.
(8B-y\L	.	[4.dd\	.
8c\)	.	.	.
8d\J	.	.	.
=40	=40	=40	=40
(8G\L	.	4dd\]	.
8A\)	.	.	.
8B-y\J	.	8g/	.
(8A\L	6	[4.cc\	.
8B-y\)	.	.	.
8c\J	.	.	.
=41	=41	=41	=41
(8F\L	.	4cc\]	.
8G\)	.	.	.
8A\J	.	8f/	.
(8G\L	.	[4.b-y\	.
8A\)	.	.	.
8B-y\J	.	.	.
=42	=42	=42	=42
(8E-X\L	6 5	4.b-y\]	.
8F\)	.	.	.
8G\J	.	.	.
4F\	5 4	(8a\L	.
.	.	8b-y\)	.
8FF/	3	8cc\J	.
=43	=43	=43	=43
4.BB-y/	.	(8b-y\L	.
.	.	8dd\	.
.	.	8cc\J	.
4.r	.	8b-y\L	.
.	.	8a\	.
.	.	8g\J)	.
=44	=44	=44	=44
8r	.	[4.ee-X\	.
(8G\L	6-r	.	.
8F\J	.	.	.
8E-X\L	.	4ee-y\]	.
8D\	.	.	.
8C\J)	.	8gg\	.
=45	=45	=45	=45
[4.A\	5-r	(8cc\L	.
.	.	8dd\	.
.	.	8ee-X\J)	.
4A\]	.	(4cc\	.
8G\	.	8b-y\)	.
!!LO:LB:g=original
=46	=46	=46	=46
(8F\L	.	[4.a/	.
8G\	.	.	.
8A\J)	.	.	.
(8F\L	.	4a/]	.
8E-X\	.	.	.
8D\J)	.	8ff\	.
=47	=47	=47	=47
[4.G\	.	(8b-y\L	.
.	.	8cc\	.
.	.	8dd\J)	.
4G\]	.	(4b-y\	.
8F\	.	8a/)	.
=48	=48	=48	=48
(8E-X\L	5	[4.g/	.
8F\	.	.	.
8G\J)	.	.	.
(8E-X\L	6	4g/]	.
8D\	.	.	.
8C\J)	.	8ee-X\	.
=49	=49	=49	=49
4.F#X\	7-r 5	(8ee-y\L	.
.	.	8dd\	.
.	.	8cc\J)	.
(8G\L	.	(8b-y/L	.
8Fn\	.	8a/	.
8E-X\J)	.	8g/J)	.
=50	=50	=50	=50
4.D\	#	(8f#X/L	.
.	.	8e/	.
.	.	8d/J)	.
4.En\	7	(8g/L	.
.	.	8f#X/	.
.	6	8e/J)	.
=51	=51	=51	=51
4.F#X\	5	(8a/L	.
.	.	8g/	.
.	.	8f#X/J)	.
4.G\	.	(8b-y/L	.
.	.	8a/	.
.	.	8g/J)	.
=52	=52	=52	=52
(8A\L	6#/	(8cc\L	.
8G\	.	8b-y\	.
8F#X\J)	.	8a\J)	.
(8B-y\L	6	(8dd\L	.
8A\	.	8cc\	.
8G\J)	.	8b-y\J)	.
=53	=53	=53	=53
(8c\L	-	(8ee-X\L	.
8B-y\	.	8dd\	.
8A\J)	.	8cc\J)	.
(8d\L	#	(8ff#X\L	.
8c\	.	8een\	.
8B-y\J)	.	8dd\J)	.
=54	=54	=54	=54
(8e-X\L	.	[4.bb-y\	.
8d\	.	.	.
8c\J)	.	.	.
(8d\L	6	8bb-y\L]	.
8c\	.	8aa\	.
8B-y\J)	.	8gg\J	.
!!LO:LB:g=original
=55	=55	=55	=55
(8A\L	6#/	8ff#X\L	.
8B-y\	.	8dd\	.
8c\J)	.	8gg\J	.
4d\	4	4gg\T	.
8D\	#	8ff#X\	.
=56	=56	=56	=56
4.G\	.	4.gg\	.
8B-y\L	6	(4dd\	p
8c\	.	.	.
8d\J	.	8b-y\)	.
=57	=57	=57	=57
8e-X\L	7	4.g/	.
8E-X\	.	.	.
8e-y\J	6	.	.
8c\L	-	(4ee-X\	.
8B-y\	.	.	.
8c\J	6	8a/)	.
=58	=58	=58	=58
8d\L	#	4.f#y/	.
8D\	.	.	.
8d\J	.	.	.
8B-y\L	6	(4dd\	.
8A\	.	.	.
8B-y\J	.	8g/)	.
=59	=59	=59	=59
8c\L	-	4.e-X/	.
8C\	.	.	.
8c\J	.	.	.
8A\L	6#/	(4cc\	.
8G\	.	.	.
8A\J	.	8f#X/)	.
=60	=60	=60	=60
4.B-y\	6	4.d/	.
4.BB-y/	.	(8gg\L	f
.	.	8ff\	.
.	.	8ee-X\J)	.
=61	=61	=61	=61
4.C/	9 7 5	(8dd\L	.
.	.	8cc\	.
.	.	8b-y\J)	.
4.D\	6 4	(4b-y\T	.
.	5 #	8a/)	.
=62	=62	=62	=62
4.GG/	.	4.g/	.
4.BB-y/	6	(8gg\L	p
.	.	8ff\	.
.	.	8ee-X\J)	.
=63	=63	=63	=63
4.C/	9 7 5	(8dd\L	.
.	.	8cc\	.
.	.	8b-y\J)	.
4.D\	6 4	(4b-y\T	.
.	5 #	8a/)	.
=64	=64	=64	=64
[4.GG/	.	[4.g/	.
4GG/]	.	4g/]	.
=:|!	=:|!	=:|!	=:|!
*-	*-	*-	*-
!!!SMS: RV 27 / Estienne Roger, Amsterdam [facs.]
!!!ENC: Fran Bennion; rev. E Correia (4/21)
!!!END: 2004/11/12
!!!ONB: Converted from MuseData with musedata2hum on Sat May 11 12:07:51 2024
!!!YEM: (C) 2004, 2004 Center for Computer Assisted Research in the Humanities.
!!!system-decoration: [(s1,s2)]
!!!URL-info: https://wiki.ccarh.org/wiki/MuseData:_Antonio_Vivaldi#Op._2:_Sonate_a_violino_e_basso_per_il_cembalo
!!!URL-pdf: https://pdf.musedata.org/vivaldi-op02-no01.pdf#page=2 MuseData edition
!!!URL-pdf: http://conquest.imslp.info/files/imglnks/usimg/b/b7/IMSLP99075-PMLP183164-Vivaldi_-_Sonatas_Op2.pdf#page=2 Estienne Roger Amsterdam: Estienne Roger, No.2, n.d.[1711].
!!!URL-youtube: https://www.youtube.com/watch?v=SiijZmW9jKM&t=2125s L'Arte dell'Arco
!!!title: @{OTL}, mov. @{OMV}
!!!filter-chint: chint -mid
!!!EEV: 2024/05/11
!!!source-file: https://bitbucket.org/musedata/vivaldi/src/master/roger/op2/no01/stage2/02/01
!!!source-file: https://bitbucket.org/musedata/vivaldi/src/master/roger/op2/no01/stage2/02/02
